Papirus/22x22/panel/weather-few-clouds.svg

<?xml version="1.0" encoding="UTF-8" standalone="no"?>
<svg xmlns:dc="http://purl.org/dc/elements/1.1/" xmlns:cc="http://creativecommons.org/ns#" xmlns:rdf="http://www.w3.org/1999/02/22-rdf-syntax-ns#" xmlns:svg="http://www.w3.org/2000/svg" xmlns="http://www.w3.org/2000/svg" version="1.1" id="svg2" style="enable-background:new" viewBox="0 0 22 22">
    <metadata id="metadata14">
        <rdf:RDF>
            <cc:Work rdf:about="">
                <dc:format>
                    image/svg+xml
                </dc:format>
                <dc:type rdf:resource="http://purl.org/dc/dcmitype/StillImage"/>
                <dc:title/>
            </cc:Work>
        </rdf:RDF>
    </metadata>
    <g id="g4">
        <path id="path6" d="M 9.4375 3 C 9.1985 4.98 8.064 5.45175 6.5 4.21875 C 7.037 6.13875 6.13475 7.00975 4.21875 6.46875 C 5.44975 8.03775 4.978 9.142 3 9.375 C 4.737 10.353 4.738 11.5895 3 12.5625 C 4.98 12.8015 5.45175 13.937953 4.21875 15.501953 C 4.65875 15.378953 5.01875 15.355953 5.34375 15.376953 C 5.66475 14.731953 6.26675 14.2355 6.96875 13.9375 C 7.00575 13.6525 6.9715 13.537 7.1875 13.125 C 7.5835 12.368 8.48425 11.58425 9.90625 11.40625 C 10.10125 11.38225 10.2745 11.375 10.4375 11.375 L 10.46875 11.375 C 12.04475 11.384 12.8945 12.1765 13.4375 12.9375 C 14.0635 12.6175 14.93325 12.4145 15.90625 12.8125 C 16.47725 13.0465 16.848953 13.41525 17.126953 13.78125 C 17.251953 13.16225 17.887953 12.757953 19.001953 12.626953 C 17.263953 11.648953 17.263953 10.4105 19.001953 9.4375 C 17.021953 9.1985 16.54825 8.064 17.78125 6.5 C 15.86125 7.037 14.99025 6.13475 15.53125 4.21875 C 13.96225 5.44975 12.859953 4.978 12.626953 3 C 11.648953 4.737 10.4105 4.737 9.4375 3 z M 10.451172 12.355469 L 10.451172 12.361328 C 10.319172 12.361328 10.177203 12.366766 10.033203 12.384766 C 7.7362031 12.672766 7.8066406 14.589844 7.8066406 14.589844 C 6.8656406 14.745844 6.0996094 15.543906 6.0996094 16.378906 C 6.0996094 17.213906 7.0783437 17.952969 7.9023438 18.167969 C 8.3923437 18.295969 9.0351563 18.167969 9.0351562 18.167969 C 9.3261563 18.666969 10.284125 18.998047 10.953125 18.998047 C 12.044125 18.998047 13.164828 18.646969 13.423828 18.167969 C 13.423828 18.167969 17.940906 18.519969 18.878906 18.167969 C 20.243906 17.655969 19.816203 16.058578 18.908203 15.517578 C 18.000203 14.976578 16.814453 15.353516 16.814453 15.353516 C 16.814453 15.353516 16.809391 14.252563 15.525391 13.726562 C 14.241391 13.200563 13.158203 14.365234 13.158203 14.365234 C 13.158203 14.365234 12.438172 12.371469 10.451172 12.355469 z " style="fill:#ffffff;fill-opacity:1;opacity:1"/>
    </g>
</svg>

<?xml version="1.0" encoding="UTF-8" standalone="no"?>
<svg id="svg2" xmlns:rdf="http://www.w3.org/1999/02/22-rdf-syntax-ns#" style="enable-background:new" xmlns="http://www.w3.org/2000/svg" viewBox="0 0 22 22" version="1.1" xmlns:cc="http://creativecommons.org/ns#" xmlns:dc="http://purl.org/dc/elements/1.1/">
 <metadata id="metadata14">
  <rdf:RDF>
   <cc:Work rdf:about="">
    <dc:format>image/svg+xml</dc:format>
    <dc:type rdf:resource="http://purl.org/dc/dcmitype/StillImage"/>
    <dc:title/>
   </cc:Work>
  </rdf:RDF>
 </metadata>
 <g id="g4">
  <path id="path6" d="m9.4375 3c-0.239 1.98-1.3735 2.4518-2.9375 1.2188 0.537 1.92-0.3652 2.791-2.2812 2.25 1.231 1.569 0.7592 2.6732-1.2188 2.9062 1.737 0.978 1.738 2.215 0 3.187 1.98 0.24 2.4518 1.376 1.2188 2.94 0.44-0.123 0.8-0.146 1.125-0.125 0.321-0.645 0.923-1.141 1.625-1.439 0.037-0.286 0.0027-0.401 0.2187-0.813 0.396-0.757 1.2967-1.541 2.7187-1.719 0.1948-0.024 0.3678-0.031 0.5318-0.031h0.031c1.576 0.009 2.425 0.801 2.969 1.563 0.626-0.32 1.495-0.524 2.468-0.126 0.571 0.234 0.943 0.603 1.221 0.969 0.125-0.619 0.761-1.023 1.875-1.154-1.738-0.978-1.738-2.217 0-3.1895-1.98-0.239-2.454-1.3735-1.221-2.9375-1.92 0.537-2.791-0.3652-2.25-2.2812-1.569 1.231-2.671 0.7592-2.904-1.2188-0.978 1.737-2.217 1.737-3.1895 0zm1.0135 9.355v0.006c-0.132 0-0.274 0.006-0.418 0.024-2.2968 0.288-2.2264 2.205-2.2264 2.205-0.941 0.156-1.707 0.954-1.707 1.789s0.9787 1.574 1.8027 1.789c0.49 0.128 1.1329 0 1.1329 0 0.291 0.499 1.2488 0.83 1.9178 0.83 1.091 0 2.212-0.351 2.471-0.83 0 0 4.517 0.352 5.455 0 1.365-0.512 0.937-2.109 0.029-2.65s-2.094-0.164-2.094-0.164-0.005-1.101-1.289-1.627-2.367 0.638-2.367 0.638-0.72-1.994-2.707-2.01z" fill="#fff"/>
 </g>
</svg>
